X:1
T:Nothing but Thy Blood
T:Nothing but Thy Blood
T:Richard Slater
T:Richard Slater, 1887
T:Public Domain Courtesy of the Cyber Hymnal™
T:Public Domain Courtesy of the Cyber Hymnal™
C:Richard Slater
Z:Public Domain
Z:Courtesy of the Cyber Hymnal™
%%score 1 ( 2 3 )
L:1/8
Q:1/4=110
M:4/4
K:G
V:1 treble 
V:2 bass 
V:3 bass 
V:1
 [Gd]2 [Gd]2 [GB]2 [Gd]2 | [EA]3 [EB] [Ec]4 | [DB][DB][DA][DG] [EA]2 [CE]2 | [DF]4 [DG]4 | %4
w: 1.~Je- sus, see me|at Thy feet,|No- thing but Thy blood can|save me.|
w: 2.~See my heart, Lord,|torn with grief,|No- thing but Thy blood can|save me;|
w: 3.~Dark, in- deed, the|past has been,|No- thing but Thy blood can|save me;|
w: 4.~As I am, oh,|hear me pray,|No- thing but Thy blood can|save me;|
w: 5.~All that I ca|do is vain,|No- thing but Thy blood can|save me;|
w: 6.~Lord, I cast my-|self on Thee,|No- thing but Thy blood can|save me;|
 [Gd]2 [Gd]2 [GB]2 [Gd]2 | [EA]3 [EB] [Ec]4 | [DB][DB][DA][DG] [EA]2 [CE]2 | [DF]4 [DG]4 || %8
w: Thou a- lone my|need canst meet,|No- thing but Thy blood can|save me.|
w: Me un- par- doned|do not leave,|No- thing but Thy blood can|save me.|
w: Yet in mer- cy|take me in,|No- thing but Thy blood can|save me.|
w: I can come no|o- ther way,|No- thing but Thy blood can|save me.|
w: I can ne’er re-|move a stain,|No- thing but Thy blood can|save me.|
w: From my guilt, oh,|set me free,|No- thing but Thy blood can|save me.|
"^Refrain" [Ge]4 [Gd]4 | [Fc][DA][DF][CE] [B,D]4 | [Ge]3 [Ge] [Gd]2 [GB]2 |!>(! [GB]4 [FA]4!>)! | %12
w: ||||
w: ||||
w: No! No!|No- thing do I bring,|But by faith I’m|cling- ing|
w: ||||
w: ||||
w: ||||
 [Gd]2 [Gd]2 [GB]2 [Gd]2 | [EA]3 [EB] [Ec]4 | [DB][DB][DA][DG] [EA]2 [CE]2 | [DF]4 [DG]4 |] %16
w: ||||
w: ||||
w: To Thy cross, O|Lamb of God!|No- thing but Thy blood can|save me.|
w: ||||
w: ||||
w: ||||
V:2
 [G,B,]2 [G,B,]2 [G,D]2 [G,B,]2 | [A,C]3 [E,^G,] A,4 | [D,B,][D,B,][F,C][G,B,] [C,A,]2 [A,,A,]2 | %3
 (A,2 B,C) [G,B,]4 | [G,B,]2 [G,B,]2 [G,D]2 [G,B,]2 | [A,C]3 [E,^G,] A,4 | %6
 [D,B,][D,B,][F,C][G,B,] [C,A,]2 [A,,A,]2 | (A,2 B,C) [G,B,]4 || C4 D4 | %9
 [A,D][F,C][D,A,][D,F,] G,4 | C3 C [B,D]2 [G,D]2 | [D,D]4 D2 C2 | [G,B,]2 [G,B,]2 [G,D]2 [G,B,]2 | %13
 [A,C]3 [E,^G,] A,4 | [D,B,][D,B,][F,C][G,B,] [C,A,]2 [A,,A,]2 | (A,2 B,C) [G,B,]4 |] %16
V:3
 x8 | x4 A,4 | x8 | D,4 x4 | x8 | x4 A,4 | x8 | D,4 x4 || C4 x4 | x4 G,4 | C3 C x4 | x4 D,4 | x8 | %13
 x4 A,4 | x8 | D,4 x4 |] %16

